resources/svg/major-inactive-location.svg

<svg xmlns="http://www.w3.org/2000/svg" viewBox="0 0 20 20" fill="currentColor"><path d="M16.4773 3.3307L12.8077 7.00026L8.97967 10.8285L4.506 15.302L1.52287 18.2853C1.13235 18.6758 1.13235 19.309 1.52287 19.6995C1.9134 20.0901 2.54656 20.0901 2.93709 19.6995L5.78971 16.8469C6.70187 17.8239 7.80315 18.7901 9.11958 19.73C9.62958 20.09 10.3296 20.09 10.8396 19.73C15.9796 16.06 17.8396 11.99 17.9696 8.44C17.9796 8.29003 17.9796 8.14997 17.9796 8C17.9796 7.00393 17.7978 6.05051 17.4655 5.17112L19.6955 2.96109C20.086 2.57056 20.086 1.9374 19.6955 1.54688C19.3049 1.15635 18.6718 1.15635 18.2812 1.54688L16.4773 3.3307Z" fill="#5C5F62"/><path d="M9.97959 0C11.9349 0 13.7257 0.700572 15.1151 1.86452L11.5411 5.43846C11.0748 5.15398 10.5352 5 9.97959 5C9.18359 5 8.42159 5.317 7.85859 5.879C7.29559 6.441 6.97958 7.204 6.97958 8C6.97958 8.55564 7.13356 9.0952 7.41804 9.56154L3.41179 13.5678C2.47336 11.8083 2.04925 10.0694 1.98958 8.44C1.97958 8.29 1.97958 8.15 1.97958 8C1.97958 3.58 5.55959 0 9.97959 0Z" fill="#5C5F62"/></svg>

<svg xmlns="http://www.w3.org/2000/svg" viewBox="0 0 20 20" fill="currentColor"><path d="m16.477 3.33-3.67 3.67-3.827 3.829-4.474 4.473-2.983 2.983a1 1 0 1 0 1.414 1.415l2.853-2.853c.912.977 2.013 1.943 3.33 2.883.51.36 1.21.36 1.72 0 5.14-3.67 7-7.74 7.13-11.29.01-.15.01-.29.01-.44 0-.996-.182-1.95-.515-2.829l2.23-2.21a1 1 0 0 0-1.414-1.414l-1.804 1.784Z"/><path d="M9.98 0c1.955 0 3.746.7 5.135 1.865l-3.574 3.573a2.998 2.998 0 0 0-3.682.441 2.996 2.996 0 0 0-.441 3.683l-4.006 4.006c-.939-1.76-1.363-3.499-1.422-5.128-.01-.15-.01-.29-.01-.44 0-4.42 3.58-8 8-8Z"/></svg>
